X: 4143
T: Blue Danube
R: waltz
M: 3/4
K: Gmajor
G|G2 B2 d2|d2 z2 d2|d2 z2 B2|B2 z2 G2|G2 B2 d2|d2 z2 d2|d2 z2 c2|c2 z2 F2|
F2 A2 c2|e2 z2 e2|e2 z2 c2|c2 z2 F2|F2 A2 c2|e2 z2 e2|e2 z2 B2|B2 z2 G2|
G2 B2 d2|g2 z2 g2|g2 z2 d2|d2 z2 G2|G2 B2 d2|g2 z2 g2|g2 z2 e2|e2 z2 A2|
A2 c2 e2|(e6|e)2 ^c2 d2|(b6|b)2 g2 B2|B4 A2|e4 d2|G2 zG G2||
g2 f2|f2 e2 e2|z2 e2 ^d2|^d2 e2 e2|z2 A2 A2|B4 A2|z2 A2 A2|e4 d2|
z2 g2 f2|f2 e2 e2|z2 e2 f2|a2 g2 g2|z2 ^c2 e2|e4 d2|^c3 (3BGE|BB B2 A2|D2||
A2|G2 z2 A2|G2 z2 A2|(f6|f)2 e2 A2|F2 z2 A2|F2 z2 A2|(e6|e)2 d2 A2|
G2 z2 A2|G2 z2 A2|(f6|f)2 e2 A2|d2 e2 f2|a4 g2|ff f2 e2|d2||

